dist/img/svg/instagram.svg

<svg width="20" height="20" viewBox="0 0 20 20" fill="none" xmlns="http://www.w3.org/2000/svg">
<path fill-rule="evenodd" clip-rule="evenodd" d="M16.8597 17.7222C12.3306 17.7012 7.80077 17.7152 3.27168 17.7129C2.35324 17.7121 2.19355 17.55 2.18965 16.5859C2.17953 14.1357 2.20601 11.6847 2.16628 9.2352C2.15382 8.4691 2.40699 8.17607 3.16418 8.29375C3.4454 8.3374 3.73752 8.30077 4.14961 8.30077C3.67286 10.9786 4.3132 13.2449 6.51854 14.8846C7.72209 15.7785 9.11806 16.1854 10.6067 16.0092C13.8427 15.6274 16.6876 13.001 15.9499 8.34051H17.814C17.8311 8.60783 17.8607 8.86033 17.8607 9.11206C17.8646 11.641 17.8452 14.1708 17.874 16.6997C17.8826 17.4495 17.6146 17.7253 16.8597 17.7222ZM10.0926 6.0851C12.2613 6.09367 13.926 7.81134 13.9214 10.0364C13.9167 12.1834 12.132 13.9409 9.98664 13.9128C7.91684 13.8847 6.11736 12.0829 6.09165 10.0122C6.06595 7.87603 7.89893 6.07653 10.0926 6.0851ZM15.7699 2.12605C15.7964 2.12605 15.8221 2.12683 15.8486 2.12605C17.9511 2.10111 17.8678 2.06058 17.8467 4.15857C17.8467 6.11783 17.8467 6.11783 15.8548 6.11861C13.8419 6.11861 13.8419 6.11861 13.8419 4.07674C13.8419 2.12839 13.8419 2.12838 15.7699 2.12605ZM17.6605 0.00312166C15.16 -0.00155438 12.6594 0.00234232 10.1588 0.00156298C7.63251 0.00078364 5.10544 0.00312166 2.57837 4.29842e-06C1.00869 -0.00233372 0.0131345 0.949242 0.00846054 2.5391C-0.00478241 7.48947 -0.000887427 12.4406 0.00923954 17.391C0.0107975 18.3761 0.367578 19.2341 1.29848 19.6565C1.80405 19.8857 2.41167 19.9714 2.97488 19.9769C6.29107 20.0049 9.60727 19.9893 12.9242 19.9901C14.3451 19.9909 15.7668 20.0104 17.1877 19.9924C18.949 19.9698 19.9897 19.0798 19.9921 17.5874C20.0022 12.5053 20.0022 7.42245 19.9944 2.34037C19.9929 0.978077 19.0098 0.00623903 17.6605 0.00312166Z" fill="white"/>
</svg>

<svg width="20" height="20" viewBox="0 0 20 20" fill="none" xmlns="http://www.w3.org/2000/svg"><path fill-rule="evenodd" clip-rule="evenodd" d="M16.86 17.722c-4.53-.02-9.06-.007-13.588-.01-.919 0-1.078-.162-1.082-1.126-.01-2.45.016-4.901-.024-7.35-.012-.767.241-1.06.998-.942.281.043.574.007.986.007-.477 2.678.163 4.944 2.369 6.584 1.203.893 2.6 1.3 4.088 1.124 3.236-.382 6.08-3.008 5.343-7.668h1.864c.017.267.047.52.047.771.004 2.529-.016 5.059.013 7.588.009.75-.26 1.025-1.014 1.022zM10.093 6.085c2.168.009 3.833 1.726 3.828 3.951-.004 2.147-1.789 3.905-3.934 3.877-2.07-.028-3.87-1.83-3.895-3.9-.026-2.137 1.807-3.936 4-3.928zm5.677-3.959h.079c2.102-.025 2.019-.065 1.998 2.033 0 1.959 0 1.959-1.992 1.96-2.013 0-2.013 0-2.013-2.042 0-1.949 0-1.949 1.928-1.95zM17.66.003c-2.5-.005-5 0-7.501-.001C7.633 0 5.105.003 2.579 0 1.008-.002.012.95.008 2.54a3146.2 3146.2 0 0 0 0 14.851c.002.985.359 1.843 1.29 2.266.505.229 1.113.314 1.676.32 3.316.028 6.632.012 9.95.013 1.42 0 2.842.02 4.263.002 1.761-.022 2.802-.912 2.804-2.405.01-5.082.01-10.165.002-15.247 0-1.362-.983-2.334-2.333-2.337z" fill="#fff"/></svg>
